X: 11
% %topspace 1cm
% %leftmargin 1.5cm
% %staffwidth 18.59cm
% %subtitlespace 0cm
% %composerspace 0cm
% %musicspace 0cm
% %partsfont Times 12 box
% %sysstaffsep 40pts
% %staffsep 70pt
% %writefields TCOBDFGHNPQRSWZ
T: Susan and Rose
C: \251 Anna Magee 2016
N: Some previous versions of this tune show Key of D, with some errant C#s instead of all naturalized Cs.
M: 3/4
L: 1/8
R: Waltz
K: Dmix
P: A
[V:1]  A |:"D"f2 fg fe |d2 de fA |"G"B2 Bd BA |"D"F2 D2 A2 |f2 fg fe |d2 de fA |"G"B4- "C"B2- |"G"B4    A2  |
[V:2]  z |:   d3  B AF |D4    D2 |   B2 BA GD |   A4    A2 |d3  B AF |D4    F2 |   G2 D2  B,2 |   G2 D2 B,2 |
[V:1]      "D"f2 fa fe |d2 de fA |"C"c3 d  ec |"D"d2 A4 |"C"c2 cd ec |"G"d2 A2 G2  |"D"F6- |[1 F4 A2 :|[2F2 D2 A2 |]
[V:2]         d3  c AF |D4    D2 |   G4    B2 |   A2 D4 |   G4    B2 |   A2 F2 A,2 |   D6- |   D4 F2 :|  D2 F2 D2 |]
% %vskip .5cm
P: B
[V:1] |:"D"d3 e fA |"G"B4 A2 |"D"d3  e fa  |"G"g4  A2 |"C"c3 d ec |"G"d4   B2 |"D"A2 f4-   |f4    a2 |
[V:2] |:   A4   d2 |   G4 FG |   A2 F2 A,2 |   B,4 D2 |   G4   G2 |   G3 G AG |   F2 A2 d2 |F2 A2 d2 |
[V:1]   "D"f3 e  dA |"G"B4 d2 |"D"A3  F DA, |"G"B,4 D2 |"C" G2 A2 c2 |"G"B2 c2 e2 |"D"d6- |[1 d2 A2 B2 :|[2d6 |]
[V:2]      d3 c  AF |   G4 A2 |   F2 D3  A, |   G,4 D2 |    E2 C3  E |   D2 E2 G2 |   F6- |   F2 F2 G2 :|  F6 |]
% %stretchlast
% %text Key of D Mixolydian
% %textoption 1
%%begintext
%%Anna Magee of Sharon MA was inspired by two of her pet mice, Susan and Rose.
%%endtext
% %textoption 5
% %begintext
% % 2018.06.02
% %endtext

%%sep 1 1 500

